!!!SOCIAL_FUNCTION:	bird dance songs
!!!PDT:	1956
!!!OTL: No_134_Whooping_Crane_Dance_Song_(b).krn
!!!LANG: Non-Tone
!!!LING_GROUP: Muskogean
!!!REG: Florida
**kern
*staff1
=1-
*clefF4
*k[f#c#g#d#]
*M2/4
4..r
16B\
=2
8B\L
16A\L
16G#\JJ
8F#\
8r
=3||
*M3/4
(8.A\L
16F#\Jk)
16A\LL
16F#\
16F#\
16F#\JJ
8E\L
8B\J
=4!|:
*M2/4
8B\L
16A\L
16G#\JJ
8F#\
8r
=5
8E\L
8E\J
8BB/L
8BB/J
=6
4BB/
8BB\L
16E\L
16E\JJ
=7
8E\L
8F#\J
8F#\
8r
=8
*M3/4
(8.A\L
16F#\Jk)
16A\LL
16F#\
16F#\
16F#\JJ
8E\L
8B\J
==:|!
*-
